X:1
T:Loyalty unto Christ
T:Charles Hutchinson Gabriel, 1902
T:Loyalty unto Christ
T:Public Domain
T:Public Domain
T:Public Domain
T:Public Domain
C:Charles Hutchinson Gabriel, 1902
Z:Public Domain
%%score ( 1 2 ) 3
L:1/8
M:4/4
K:Ab
V:1 treble 
V:2 treble 
V:3 bass 
V:1
 (3[CE][CE][CE] [CE]>[CE] [DE]2 [DE]2 | [EA]>[EG] [EA]>[Ec] [FB]2 [DF]2 | %2
w: 1.~“Loy- al- ty un- to Christ” the|trump- et now is sound- ing,|
w: 2.~Loy- al- ty, faith and works, in|ho- ly con- se- cra- tion,|
w: 3.~“Loy- al- ty un- to Christ!” O|what a might- y pow- er,|
 [FB]>[Fc] [FB]>F [EB]>[Ec] [GB]>[Ge] | [A=d]2 [Ad]2 [E_d]4 | [Ec]>[Ec] [=D=B]>[Ec] [Ee]2 [Ee]2 | %5
w: And the e- choes an- swer from the|fields of sin;|Na- tions are a- wak- ing,|
w: Shall the scat- tered na- tions un- to|Him re- store;|Then the world shall own Him,|
w: Were the hosts of God u- nit- ed|in His name!|Then would an- gels greet us,|
 [FA]>[FA] [FG]>[FA] [Gc]2 [=Ec]2 | [DF]>[D=E] [DF]>[_EG] [EA]>[EA] [EB]>[Ec] | [Ec]2 [DB]2 [CA]4 | %8
w: i- dol thrones are shak- ing,|For the great mil- len- ni- um is|com- ing in.|
w: and with joy en- throne Him,|King of kings and Lord of lords for-|ev- er- more.|
w: Christ Him- self would meet us,|And bap- tize us with the Pen- te-|cost- al flame.|
 [EG]4- [EG]>[FA] [^F=A]>[GB] | [Ge]2 [GB]3 [EG] [GB]>[Ge] | %10
w: Like * a might- y|arm- y, The her- alds|
w: See * the dark- ness|lift- ing! The Go- spel|
w: Then * would come the|tri- umph, And Christ be|
 [Ad]>[Ad] [FA]>[FA] [Ac]>[Ac] [DF]>[DF] | [EB]2 [EB]2 (E2 A2) | [EG]4- [EG]>[FA] [^F=A]>[GB] | %13
w: of the cross are spread- ing o- ver|land and sea. *|ing * through the dark-|
w: light of truth is spread- ing to the|per- fect day! *|are * back- ward drift-|
w: known and loved, His praise be sung from|shore to shore; *|would * then, in glo-|
 [Ge]2 [GB]3 [EG] [GB]>[Gc] | [Gd]>[Gd] [GB]>[ce] [Bd]>[=Ac] [GB]>[^FA] | ([DG]4 [AB]4) || %16
w: ness, The light that lead-|eth to sal- va- tion full and free.||
w: ing! Re- new en- dea-|vor! for the king pre- pare the way!|Long *|
w: ry, Be- come the king-|dom of the Lord for- ev- er- more.||
"^Refrain" [Ge]2 [Ae]2 [Be]2 (3[=Bd][ce][Ac] | [GB]>[EG] [EG]>[EG] [EG]2 [EB]2 | %18
w: ||
w: and loud, “Loy- al- ty un-|to Christ” we sing; Till ev-|
w: ||
 [DB]>[B,D] [B,D]>[B,D] [B,D]2 [DB]2 | [EB]>[B,E] [B,E]>[B,E] (z G/A/ (3Bcd) | %20
w: ||
w: ery hu- man tongue shall hear|His prais- es sung! * * * * *|
w: ||
 [Ge]2 [Ae]2 [Be]2 (3[=Bd][ce][Ac] | [GB]>[EG] [EG]>[EG] [EG]2 [GB]2 | %22
w: ||
w: * the hills, val- leys and|de- sert plac- es ring, With|
w: ||
 (3[Ad][Ad][AB] [Ad]>[AB] [Ad]>B [=Ac]>[_Ad] | G2 A2 [Ge]4 |] %24
w: ||
w: “Loy- al- ty un- to Christ, our Lord and|king.” * *|
w: ||
V:2
 x8 | x8 | x8 | x8 | x8 | x8 | x8 | x8 | x8 | x8 | x8 | x4 B4 | x8 | x8 | x8 | x8 || x8 | x8 | x8 | %19
w: |||||||||||Bear-||||||||
w: |||||||||||Clouds||||||||
w: |||||||||||Earth||||||||
 x4 [B,E]2 x2 | x8 | x8 | x8 | e4- x4 |] %24
w: |||||
w: Let|||||
w: |||||
V:3
 (3[A,,A,][A,,A,][A,,A,] [A,,A,]>[A,,A,] [B,,G,]2 [B,,G,]2 | %1
 [C,A,]>[C,A,] [C,A,]>[C,A,] [D,A,]2 [D,A,]2 | %2
 [=D,A,]>[D,A,] [D,A,]>[D,A,] [E,G,]>[E,G,] [E,B,]>[E,B,] | [F,B,]2 [F,B,]2 [G,B,]4 | %4
 A,>A, A,>A, [G,B,]2 [G,B,]2 | [F,C]>[F,C] [F,C]>[F,C] [=E,C]2 [C,B,]2 | %6
 [D,A,]>[D,G,] [D,A,]>[D,B,] [C,A,]>[C,A,] [B,,G,]>[A,,A,] | [E,A,]2 [E,G,]2 [A,,A,]4 | %8
 ([E,B,]>[E,B,] [E,B,]>[E,B,] [E,B,]2) [E,B,]2 | ([E,B,]>[E,B,]) ([E,E]>[E,E] [E,E]2) [E,B,]2 | %10
 [B,,B,]>[B,,B,] [B,,B,]>[B,,B,] [B,,D]>[B,,D] [A,B,]>[A,B,] | [G,B,]2 [F,A,]2 [E,G,]2 [B,,B,]2 | %12
 ([E,B,]>[E,B,] [E,B,]>[E,B,] [E,B,]2) [E,B,]2 | %13
 ([E,B,]>[E,B,]) ([E,E]>[E,E] [E,E]2) [E,B,]>[E,B,] | %14
 [D,B,]>[D,B,] [D,D]>[D,D] [D,D]>[D,D] [D,D]>[D,D] | ([G,B,]4 (3F,B,,C, (3D,E,F,) || %16
 [E,B,]2 [F,B,]2 [G,E]2 (3[A,E][A,E][A,E] | [E,E]>[E,B,] [E,B,]>[E,B,] [E,B,]2 [E,G,]2 | %18
 [B,,A,]>[B,,A,] [B,,A,]>[B,,A,] [B,,A,]2 [B,,A,]2 | [E,G,]>[E,G,] [E,G,]>[E,G,] [E,G,]2 z2 | %20
 [E,B,]2 [F,B,]2 [G,E]2 (3[A,E][A,E][A,E] | [E,E]>[E,B,] [E,B,]>[E,B,] [E,B,]2 [E,B,]2 | %22
 (3[B,,B,][B,,B,][B,,B,] [B,,B,]>[B,,B,] [B,,B,]>[B,,B,] [B,,B,]>[B,,B,] | [E,B,]2 [E,C]2 [E,D]4 |] %24

